X: 45
T:Peek-a-Boo 
R:
C:Trad.
S:Otta
Z:alf 
M:3/4
L:1/8
K:D
(FG)|A2 f2 e2|d2 c2 B2|A2 F2 B2|A4 FG|A2 f2 e2|d2 c2 d2|e4 (ef)|e4(FG)|
A2 f2 e2|d2 c2 B2|A2 F2 B2|A4 A2|B2 g2 f2|e2 B2 c2|d2 f2 e2|d4:|
(FG)|A4 f2|A4 A2|B4 g2|B4 B2|c4 c2|B2 c2 B2|A2 F2 B2|A4 FG|
A4 f2|A4 A2|B4 g2|B4 B2|c2B2A2|g2f2 e2|d3 cde|d4:|
